img/logo2.svg

<svg width="60" height="33" viewBox="0 0 60 33" fill="none" xmlns="http://www.w3.org/2000/svg">
<g clip-path="url(#clip0_2118_14039)">
<path d="M8.78329 8.94248C9.40872 9.1969 9.9438 9.63402 10.3193 10.1973C10.6984 10.788 10.8927 11.4793 10.8771 12.182C10.8771 13.4926 10.4074 14.5216 9.46805 15.2689C8.52867 16.0162 7.25003 16.3913 5.63213 16.394C4.05447 16.394 2.75015 16.0071 1.71919 15.2333C0.688231 14.4595 0.115168 13.3392 0 11.8725H2.83688C3.04501 13.105 3.95803 13.7213 5.57593 13.7213C7.2202 13.7213 8.04233 13.1183 8.04233 11.9122C8.05495 11.695 8.01518 11.478 7.9264 11.2795C7.83762 11.0811 7.70245 10.9071 7.5324 10.7724C7.19383 10.5089 6.61383 10.3772 5.79239 10.3772H3.81511V7.9198H5.43856C6.88718 7.9198 7.61149 7.46179 7.61149 6.54577C7.61149 5.40388 6.85457 4.83363 5.34074 4.83502C4.64696 4.83502 4.10928 4.9626 3.7277 5.21774C3.34265 5.47289 3.08456 5.90999 2.95551 6.52485H0.135286C0.274043 5.10969 0.822133 4.02845 1.77955 3.28113C2.73697 2.53382 3.95595 2.16016 5.43648 2.16016C6.92534 2.16016 8.13183 2.53382 9.05594 3.28113C9.49803 3.61866 9.85444 4.05643 10.0961 4.55873C10.3377 5.06104 10.4577 5.61363 10.4463 6.17141C10.4503 6.74659 10.2946 7.3115 9.99671 7.80268C9.70701 8.28976 9.28642 8.68482 8.78329 8.94248Z" fill="#1D316C"/>
<path d="M19.9544 5.3457H22.7518V16.1581H19.9544V11.99H15.1216V16.1581H12.3242V5.3457H15.1216V9.33604H19.9544V5.3457Z" fill="#1D316C"/>
<path d="M32.6311 5.34546H35.4284L35.4097 16.1579H32.6124V14.6939C32.2364 15.2362 31.7317 15.6757 31.144 15.9726C30.5564 16.2695 29.9043 16.4144 29.2468 16.3942C28.5796 16.4099 27.9173 16.276 27.3081 16.0021C26.6989 15.7282 26.1582 15.3213 25.7252 14.811C24.7983 13.757 24.3355 12.4038 24.3369 10.7517C24.3383 9.09948 24.8045 7.74636 25.7356 6.69231C26.1643 6.18388 26.6999 5.7774 27.3038 5.50217C27.9078 5.22695 28.565 5.08985 29.2281 5.10077C29.8961 5.08147 30.5581 5.23176 31.1529 5.53773C31.7477 5.8437 32.2561 6.29547 32.6311 6.85125V5.34546ZM29.8733 13.7214C30.2412 13.7309 30.607 13.6622 30.9466 13.5198C31.2863 13.3775 31.5922 13.1647 31.8444 12.8953C32.11 12.6071 32.3162 12.269 32.4513 11.9004C32.5863 11.5318 32.6474 11.1399 32.6311 10.7475C32.6616 9.95771 32.3786 9.18812 31.8444 8.608C31.5916 8.3384 31.285 8.12559 30.9445 7.98357C30.6041 7.84155 30.2376 7.77354 29.8692 7.784C29.5033 7.77204 29.1391 7.83945 28.8015 7.98165C28.4639 8.12384 28.1607 8.33748 27.9127 8.608C27.3922 9.19475 27.1197 9.96219 27.153 10.7475C27.1204 11.5362 27.3978 12.3061 27.9252 12.8911C28.1725 13.1607 28.4742 13.3743 28.8101 13.5174C29.146 13.6606 29.5085 13.7301 29.8733 13.7214Z" fill="#1D316C"/>
<path d="M44.3524 5.3457H47.5597V16.1581H44.7624V12.3246L44.9393 9.12063L40.4977 16.1581H37.2695V5.3457H40.0669V9.17919L39.9295 12.3455L44.3524 5.3457Z" fill="#1D316C"/>
<path d="M9.15854 21.4492H12.3638V32.2616H9.57481V28.4281L9.77046 24.7327L6.41533 29.57H6.33832L2.99151 24.7348L3.16843 28.4302V32.2637H0.371094V21.4513H3.59926L6.37786 25.3057L9.15854 21.4492Z" fill="#FC6733"/>
<path d="M19.388 21.2046C21.1488 21.2046 22.5405 21.8139 23.5632 23.0325C24.5858 24.251 25.0264 25.7652 24.8848 27.5749H16.6281C16.7197 28.4115 17.0194 29.0535 17.5273 29.5011C18.0552 29.9535 18.7319 30.1921 19.4254 30.1703C19.9377 30.1794 20.4436 30.054 20.8928 29.8064C21.3014 29.588 21.6253 29.2382 21.8128 28.813H24.7079C24.3955 29.9427 23.6865 30.9204 22.7119 31.5653C21.7381 32.1916 20.6023 32.516 19.4463 32.498C17.7812 32.498 16.4179 31.9675 15.3564 30.9065C14.2949 29.8455 13.767 28.5014 13.7725 26.8743C13.7725 25.2514 14.3005 23.9018 15.3564 22.8254C16.4123 21.749 17.7562 21.2088 19.388 21.2046ZM19.3672 23.526C18.7664 23.5042 18.177 23.6952 17.7021 24.0656C17.2499 24.4399 16.9224 24.9441 16.7634 25.5107H21.9085C21.7745 24.943 21.4586 24.4353 21.0094 24.0656C20.5406 23.7011 19.9595 23.5131 19.3672 23.5344V23.526Z" fill="#FC6733"/>
<path d="M31.6751 32.4981C30.9333 32.516 30.1957 32.382 29.5071 32.1042C28.8185 31.8265 28.1933 31.4108 27.6697 30.8825C27.1461 30.3543 26.735 29.7244 26.4614 29.0314C26.1878 28.3384 26.0575 27.5966 26.0783 26.8514C26.0598 26.106 26.1926 25.3647 26.4685 24.6725C26.7443 23.9804 27.1576 23.3519 27.683 22.8255C28.7404 21.7449 30.0773 21.2046 31.6938 21.2046C32.9752 21.1801 34.227 21.593 35.2446 22.3758C35.7425 22.7563 36.1593 23.2334 36.4703 23.7787C36.7813 24.324 36.9803 24.9265 37.0554 25.5505H34.1789C34.0456 25.0197 33.7217 24.5571 33.2694 24.2518C32.8014 23.9454 32.2523 23.7879 31.6938 23.8C31.3145 23.783 30.9359 23.8489 30.5845 23.9934C30.233 24.1378 29.917 24.3573 29.6582 24.6366C29.1316 25.2487 28.8649 26.0438 28.9152 26.8514C28.8683 27.6564 29.139 28.4476 29.6687 29.0536C29.9234 29.3299 30.2346 29.5478 30.5809 29.6921C30.9272 29.8365 31.3004 29.9041 31.6751 29.8901C32.236 29.9013 32.7875 29.744 33.259 29.4384C33.7198 29.1313 34.0483 28.6607 34.1789 28.1208H37.0491C36.8396 29.4969 36.2298 30.5684 35.2196 31.3353C34.2002 32.1092 32.9526 32.5185 31.6751 32.4981Z" fill="#FC6733"/>
<path d="M47.2284 21.4492V24.1032H43.8983V32.2595H41.103V24.1032H37.7979V21.4492H47.2284Z" fill="#FC6733"/>
<path d="M56.2865 21.4495H59.0839L59.0651 32.2619H56.2657V30.7979C55.8907 31.3407 55.3865 31.7807 54.7991 32.0776C54.2116 32.3746 53.5595 32.5192 52.9022 32.4982C52.2347 32.5142 51.572 32.3804 50.9624 32.1066C50.3528 31.8327 49.8117 31.4256 49.3785 30.915C48.453 29.861 47.9902 28.5079 47.9902 26.8557C47.9902 25.2035 48.4565 23.8504 49.3889 22.7963C49.8176 22.2879 50.3532 21.8814 50.9572 21.6062C51.5611 21.331 52.2183 21.1939 52.8814 21.2048C53.5497 21.1853 54.2121 21.3355 54.8073 21.6415C55.4024 21.9475 55.9112 22.3993 56.2865 22.9553V21.4495ZM53.5266 29.8254C53.8956 29.8355 54.2624 29.7672 54.6032 29.6248C54.9439 29.4824 55.2509 29.2693 55.5039 28.9993C56.0092 28.4005 56.2866 27.6408 56.2866 26.8557C56.2866 26.0705 56.0092 25.3109 55.5039 24.712C55.2507 24.4425 54.9437 24.2297 54.6029 24.0877C54.2622 23.9457 53.8954 23.8777 53.5266 23.888C53.1608 23.8765 52.7968 23.9441 52.4592 24.0863C52.1217 24.2284 51.8185 24.4418 51.5702 24.712C51.0497 25.2989 50.7765 26.0661 50.8084 26.8515C50.7747 27.6404 51.0522 28.4107 51.5806 28.9952C51.8273 29.2649 52.1286 29.4786 52.4642 29.6218C52.7999 29.765 53.1621 29.8344 53.5266 29.8254Z" fill="#FC6733"/>
<path d="M45.6821 0.5H39.1279V2.62274H45.6821V0.5Z" fill="#1D316C"/>
<path d="M51.2684 15.2607C51.3849 15.1569 51.5352 15.0996 51.6909 15.0996C51.8466 15.0996 51.9969 15.1569 52.1134 15.2607C52.1675 15.314 52.2104 15.3777 52.2397 15.4479C52.269 15.5181 52.2841 15.5934 52.2841 15.6696C52.2841 15.7457 52.269 15.8211 52.2397 15.8913C52.2104 15.9615 52.1675 16.0251 52.1134 16.0784C51.9963 16.181 51.8462 16.2375 51.6909 16.2375C51.5356 16.2375 51.3855 16.181 51.2684 16.0784C51.2143 16.0251 51.1714 15.9615 51.1421 15.8913C51.1128 15.8211 51.0977 15.7457 51.0977 15.6696C51.0977 15.5934 51.1128 15.5181 51.1421 15.4479C51.1714 15.3777 51.2143 15.314 51.2684 15.2607Z" fill="#1D316C"/>
<path d="M55.1263 12.3977C55.1959 12.3984 55.2653 12.4026 55.3345 12.4103V13.3953C55.2571 13.3863 55.1793 13.3815 55.1013 13.3807C54.8067 13.3668 54.5169 13.4604 54.2855 13.6442C54.1751 13.758 54.0908 13.8946 54.0383 14.0445C53.9858 14.1944 53.9665 14.354 53.9816 14.5121V16.1518H53.0283V12.4772H53.9816V13.1193C54.0749 12.895 54.2351 12.7052 54.44 12.576C54.645 12.4468 54.8847 12.3845 55.1263 12.3977Z" fill="#1D316C"/>
<path d="M58.1309 12.4775H59.0842V16.1584H58.1309V15.6502C58.0071 15.8363 57.8382 15.9879 57.6402 16.0907C57.4422 16.1935 57.2215 16.2441 56.9987 16.2378C56.8207 16.2469 56.6428 16.2166 56.4777 16.149C56.3127 16.0814 56.1644 15.9782 56.0433 15.8467C55.7977 15.5504 55.6727 15.1716 55.6937 14.7864V12.4859H56.6469V14.5773C56.6324 14.7773 56.6876 14.9762 56.803 15.1399C56.8701 15.2072 56.9511 15.2588 57.0404 15.291C57.1296 15.3232 57.2248 15.3351 57.3192 15.326C57.4304 15.3334 57.5419 15.3163 57.6458 15.2758C57.7497 15.2353 57.8435 15.1725 57.9207 15.0918C58.0733 14.8991 58.1477 14.6555 58.1288 14.41L58.1309 12.4775Z" fill="#1D316C"/>
</g>
<defs>
<clipPath id="clip0_2118_14039">
<rect width="60" height="32" fill="white" transform="translate(0 0.5)"/>
</clipPath>
</defs>
</svg>

<svg width="60" height="33" viewBox="0 0 60 33" fill="none" xmlns="http://www.w3.org/2000/svg"><g clip-path="url(#a)"><path d="M8.783 8.942a3.38 3.38 0 0 1 1.536 1.255 3.52 3.52 0 0 1 .558 1.985c0 1.31-.47 2.34-1.409 3.087-.94.747-2.218 1.122-3.836 1.125-1.578 0-2.882-.387-3.913-1.16C.69 14.46.115 13.338 0 11.872h2.837c.208 1.232 1.121 1.848 2.739 1.848 1.644 0 2.466-.603 2.466-1.809a1.357 1.357 0 0 0-.51-1.14c-.338-.263-.918-.395-1.74-.395H3.815V7.92H5.44c1.448 0 2.172-.458 2.172-1.374 0-1.142-.756-1.712-2.27-1.711-.694 0-1.232.128-1.613.383-.385.255-.643.692-.772 1.307H.136C.273 5.11.821 4.028 1.78 3.28c.957-.747 2.176-1.12 3.656-1.12 1.49 0 2.696.373 3.62 1.12a3.536 3.536 0 0 1 1.39 2.89 3.104 3.104 0 0 1-.45 1.632c-.289.487-.71.882-1.213 1.14zm11.171-3.596h2.798v10.812h-2.798V11.99h-4.832v4.168h-2.798V5.346h2.798v3.99h4.832v-3.99zm12.677-.001h2.797l-.018 10.813h-2.798v-1.464a3.96 3.96 0 0 1-1.468 1.279 3.938 3.938 0 0 1-1.897.421 4.47 4.47 0 0 1-3.522-1.583c-.927-1.054-1.39-2.407-1.388-4.06.001-1.652.468-3.005 1.399-4.059a4.484 4.484 0 0 1 3.492-1.591 3.957 3.957 0 0 1 3.403 1.75V5.345zm-2.758 8.376a2.602 2.602 0 0 0 1.971-.826 2.982 2.982 0 0 0 .787-2.147c.03-.79-.252-1.56-.787-2.14a2.612 2.612 0 0 0-1.975-.824 2.537 2.537 0 0 0-1.956.824 3.03 3.03 0 0 0-.76 2.14 3.016 3.016 0 0 0 .772 2.143 2.566 2.566 0 0 0 1.948.83zm14.479-8.375h3.208v10.812h-2.798v-3.833l.177-3.204-4.441 7.037H37.27V5.346h2.797v3.833l-.138 3.166 4.423-7z" fill="#1D316C"/><path d="M9.159 21.45h3.205v10.812h-2.79v-3.834l.196-3.695-3.355 4.837h-.077l-3.346-4.835.176 3.695v3.834H.371V21.45H3.6l2.779 3.855 2.78-3.857zm10.229-.245c1.76 0 3.152.609 4.175 1.828 1.023 1.218 1.463 2.732 1.322 4.542h-8.257c.092.837.391 1.479.9 1.926a2.782 2.782 0 0 0 1.897.67 2.932 2.932 0 0 0 1.468-.365c.408-.218.732-.568.92-.993h2.895a4.849 4.849 0 0 1-1.996 2.752 5.864 5.864 0 0 1-3.266.933c-1.665 0-3.028-.53-4.09-1.591-1.061-1.061-1.589-2.406-1.583-4.033 0-1.623.527-2.972 1.583-4.049 1.056-1.076 2.4-1.616 4.032-1.62zm-.02 2.321a2.558 2.558 0 0 0-1.666.54c-.452.374-.78.878-.939 1.445h5.145a2.664 2.664 0 0 0-.899-1.445 2.527 2.527 0 0 0-1.642-.532v-.008zm12.307 8.972a5.443 5.443 0 0 1-4.005-1.615 5.496 5.496 0 0 1-1.592-4.032 5.516 5.516 0 0 1 1.605-4.025c1.057-1.081 2.394-1.621 4.01-1.621a5.646 5.646 0 0 1 3.552 1.17 4.69 4.69 0 0 1 1.81 3.175H34.18a2.218 2.218 0 0 0-.91-1.298 2.767 2.767 0 0 0-1.575-.452 2.61 2.61 0 0 0-2.036.837 3.1 3.1 0 0 0-.743 2.214 3.075 3.075 0 0 0 .754 2.203 2.602 2.602 0 0 0 2.006.836 2.809 2.809 0 0 0 1.584-.452c.46-.307.79-.777.92-1.317h2.87c-.21 1.376-.82 2.447-1.83 3.214a5.71 5.71 0 0 1-3.544 1.163zM47.228 21.45v2.653h-3.33v8.157h-2.795v-8.157h-3.305V21.45h9.43zm9.058 0h2.798l-.019 10.812h-2.8v-1.464a3.926 3.926 0 0 1-3.364 1.7 4.473 4.473 0 0 1-3.522-1.583c-.926-1.054-1.389-2.407-1.389-4.06 0-1.652.466-3.005 1.399-4.059a4.483 4.483 0 0 1 3.492-1.591 3.96 3.96 0 0 1 1.926.437 3.982 3.982 0 0 1 1.48 1.313V21.45zm-2.76 8.375A2.607 2.607 0 0 0 55.505 29a3.324 3.324 0 0 0 0-4.287 2.618 2.618 0 0 0-1.977-.824 2.544 2.544 0 0 0-1.957.824 3.04 3.04 0 0 0-.762 2.14 3.006 3.006 0 0 0 .773 2.143 2.559 2.559 0 0 0 1.946.83z" fill="#FC6733"/><path d="M45.682.5h-6.554v2.123h6.554V.5zm5.586 14.76a.635.635 0 0 1 .845 0 .572.572 0 0 1 0 .818.641.641 0 0 1-.845 0 .572.572 0 0 1-.126-.63.572.572 0 0 1 .126-.187zm3.858-2.862c.07 0 .14.005.209.012v.985a2.215 2.215 0 0 0-.234-.014 1.22 1.22 0 0 0-.816.263 1.094 1.094 0 0 0-.303.868v1.64h-.954v-3.675h.954v.642a1.176 1.176 0 0 1 1.144-.721zm3.004.079h.954v3.681h-.953v-.508a1.32 1.32 0 0 1-1.132.588 1.212 1.212 0 0 1-.956-.391 1.531 1.531 0 0 1-.35-1.06v-2.301h.954v2.091c-.015.2.04.4.156.563a.643.643 0 0 0 .516.186.76.76 0 0 0 .602-.234.978.978 0 0 0 .208-.682l.002-1.933z" fill="#1D316C"/></g><defs><clipPath id="a"><path fill="#fff" transform="translate(0 .5)" d="M0 0h60v32H0z"/></clipPath></defs></svg>
